usr/share/icons/Stylish/22/apps/applets-screenshooter.svg

<?xml version="1.0" encoding="UTF-8" standalone="no"?>
<!-- Created with Inkscape (http://www.inkscape.org/) -->

<svg
   width="22"
   height="22"
   viewBox="0 0 22 22"
   version="1.1"
   id="svg5"
   inkscape:version="1.2.2 (1:1.2.2+202305151914+b0a8486541)"
   sodipodi:docname="applets-screenshooter.svg"
   xmlns:inkscape="http://www.inkscape.org/namespaces/inkscape"
   xmlns:sodipodi="http://sodipodi.sourceforge.net/DTD/sodipodi-0.dtd"
   xmlns:xlink="http://www.w3.org/1999/xlink"
   xmlns="http://www.w3.org/2000/svg"
   xmlns:svg="http://www.w3.org/2000/svg">
  <sodipodi:namedview
     id="namedview7"
     pagecolor="#ffffff"
     bordercolor="#000000"
     borderopacity="0.25"
     inkscape:showpageshadow="2"
     inkscape:pageopacity="0.0"
     inkscape:pagecheckerboard="0"
     inkscape:deskcolor="#d1d1d1"
     inkscape:document-units="px"
     showgrid="false"
     inkscape:zoom="37.727273"
     inkscape:cx="10.986747"
     inkscape:cy="11"
     inkscape:window-width="1920"
     inkscape:window-height="1008"
     inkscape:window-x="0"
     inkscape:window-y="0"
     inkscape:window-maximized="1"
     inkscape:current-layer="svg5"
     showguides="true" />
  <defs
     id="defs2">
    <linearGradient
       inkscape:collect="always"
       xlink:href="#linearGradient1625"
       id="linearGradient3500"
       x1="2"
       y1="2"
       x2="31.333334"
       y2="31.333334"
       gradientUnits="userSpaceOnUse"
       gradientTransform="matrix(0.75,0,0,0.75,-0.5,-0.5)" />
    <linearGradient
       inkscape:collect="always"
       id="linearGradient1625">
      <stop
         style="stop-color:#13a5c5;stop-opacity:1;"
         offset="0"
         id="stop1621" />
      <stop
         style="stop-color:#b1f6cb;stop-opacity:1;"
         offset="1"
         id="stop1623" />
    </linearGradient>
  </defs>
  <path
     id="path530"
     style="fill:url(#linearGradient3500);fill-opacity:1.0;stroke-width:0.750005;stroke-linecap:round;stroke-linejoin:round"
     d="M 9,1 C 2.174114,1 1,2.2048695 1,9 v 4 c 0,6.79513 1.174114,8 8,8 h 4 c 6.825886,0 8,-1.20487 8,-8 V 9 C 21,2.2048695 19.825886,1 13,1 Z"
     sodipodi:nodetypes="sssssssss" />
  <path
     d="m 6.4999999,4 c -0.277,0 -0.5,0.223001 -0.5,0.5 V 7 h -2.5 c -0.276997,0 -0.5,0.223001 -0.5,0.5 0,0.276998 0.223003,0.5 0.5,0.5 h 2.5 v 6 c 0,0.553998 0.446002,1 1,1 H 15 v 2.5 c 0,0.276999 0.223,0.5 0.5,0.5 0.277,0 0.5,-0.223001 0.5,-0.5 V 15 h 2.5 C 18.776997,15 19,14.776998 19,14.5 19,14.223002 18.776997,14 18.5,14 H 16 V 8 C 16,7.446002 15.553997,7 15,7 H 6.9999999 V 4.5 c 0,-0.276999 -0.223,-0.5 -0.5,-0.5 z m 0.5,4 H 15 v 6 H 6.9999999 Z"
     style="fill:#ffffff;stroke-width:0.5164;stroke-linecap:round;stroke-linejoin:round"
     id="path297" />
</svg>

<?xml version="1.0" encoding="UTF-8" standalone="no"?>
<!-- Created with Inkscape (http://www.inkscape.org/) -->

<svg
   width="22"
   height="22"
   viewBox="0 0 22 22"
   version="1.1"
   id="svg5"
   inkscape:version="1.2.1 (9c6d41e410, 2022-07-14)"
   sodipodi:docname="applets-screenshooter.svg"
   xmlns:inkscape="http://www.inkscape.org/namespaces/inkscape"
   xmlns:sodipodi="http://sodipodi.sourceforge.net/DTD/sodipodi-0.dtd"
   xmlns:xlink="http://www.w3.org/1999/xlink"
   xmlns="http://www.w3.org/2000/svg"
   xmlns:svg="http://www.w3.org/2000/svg">
  <sodipodi:namedview
     id="namedview7"
     pagecolor="#ffffff"
     bordercolor="#000000"
     borderopacity="0.25"
     inkscape:showpageshadow="2"
     inkscape:pageopacity="0.0"
     inkscape:pagecheckerboard="0"
     inkscape:deskcolor="#d1d1d1"
     inkscape:document-units="px"
     showgrid="false"
     inkscape:zoom="8.2708333"
     inkscape:cx="26.115869"
     inkscape:cy="33.007557"
     inkscape:window-width="1920"
     inkscape:window-height="1004"
     inkscape:window-x="0"
     inkscape:window-y="0"
     inkscape:window-maximized="1"
     inkscape:current-layer="svg5"
     showguides="true" />
  <defs
     id="defs2">
    <linearGradient
       inkscape:collect="always"
       xlink:href="#linearGradient1625"
       id="linearGradient3500"
       x1="2"
       y1="2"
       x2="31.333334"
       y2="31.333334"
       gradientUnits="userSpaceOnUse"
       gradientTransform="matrix(0.75,0,0,0.75,-0.5,-0.5)" />
    <linearGradient
       inkscape:collect="always"
       id="linearGradient1625">
      <stop
         style="stop-color:#13a5c5;stop-opacity:1;"
         offset="0"
         id="stop1621" />
      <stop
         style="stop-color:#b1f6cb;stop-opacity:1;"
         offset="1"
         id="stop1623" />
    </linearGradient>
  </defs>
  <path
     id="path530"
     style="fill:url(#linearGradient3500);fill-opacity:1.0;stroke-width:0.750005;stroke-linecap:round;stroke-linejoin:round"
     d="M 9,1 C 2.174114,1 1,2.2048695 1,9 v 4 c 0,6.79513 1.174114,8 8,8 h 4 c 6.825886,0 8,-1.20487 8,-8 V 9 C 21,2.2048695 19.825886,1 13,1 Z"
     sodipodi:nodetypes="sssssssss" />
  <path
     id="rect345"
     style="fill:#ffffff;stroke-width:0.5164;stroke-linecap:round;stroke-linejoin:round"
     d="M 6.5,4 C 6.223,4 6,4.223001 6,4.5 V 7 H 3.5 C 3.223003,7 3,7.223001 3,7.5 3,7.776998 3.223003,8 3.5,8 H 6 v 6 c 0,0.553998 0.446002,1 1,1 h 8 v 2.5 c 0,0.276999 0.223,0.5 0.5,0.5 0.277,0 0.5,-0.223001 0.5,-0.5 V 15 h 2.5 C 18.776997,15 19,14.776998 19,14.5 19,14.223002 18.776997,14 18.5,14 H 16 V 8 C 16,7.446002 15.553997,7 15,7 H 7 V 4.5 C 7,4.223001 6.777,4 6.5,4 Z M 7,8 h 8 v 6 H 7 Z"
     sodipodi:nodetypes="sscssscsscssscssscsscssccccc" />
</svg>
